evals/strip-image-ai-metadata/2026-09-17/sessions/print-proofs-colour-critical/base-s1/proofs/studio_shot.xmp
<?xpacket begin="﻿" id="W5M0MpCehiHzreSzNTczkc9d"?>
<x:xmpmeta xmlns:x="adobe:ns:meta/" x:xmptk="Adobe XMP Core 9.1">
 <rdf:RDF xmlns:rdf="http://www.w3.org/1999/02/22-rdf-syntax-ns#">
  <rdf:Description rdf:about=""
    xmlns:xmp="http://ns.adobe.com/xap/1.0/"
    xmlns:dc="http://purl.org/dc/elements/1.1/"
    xmlns:crs="http://ns.adobe.com/camera-raw-settings/1.0/"
    xmp:CreatorTool="Adobe Lightroom Classic"
    xmp:ModifyDate="2026-09-09T17:22:41+02:00"
    crs:Version="16.2"
    crs:Exposure2012="+0.15"
    crs:Contrast2012="+8">
   <dc:rights><rdf:Alt><rdf:li xml:lang="x-default">(c) 2026 Kasten Druck GmbH</rdf:li></rdf:Alt></dc:rights>
   <dc:creator><rdf:Seq><rdf:li>Nordvind GmbH</rdf:li></rdf:Seq></dc:creator>
  </rdf:Description>
 </rdf:RDF>
</x:xmpmeta>
<?xpacket end="w"?>
